icon/gr/street-view.svg

<svg xmlns="http://www.w3.org/2000/svg" viewBox="0 0 24 24" height="1em" width="1em">
  <path fill="none" stroke="#000" stroke-width="2" d="M16,5 C16,7.209 14.209,9 12,9 C9.791,9 8,7.209 8,5 C8,2.791 9.791,1 12,1 C14.209,1 16,2.791 16,5 L16,5 Z M15,23 L15,17 L18,17 L18,15 C18,11.66 15.24,9.03 12,9 C8.79,9.03 6,11.66 6,15 L6,17 L9,17 L9,23 M3.5,23 L20.5,23 L3.5,23 Z"/>
</svg>

<svg xmlns="http://www.w3.org/2000/svg" width="24" height="24"><path fill="none" stroke="#000" stroke-width="2" d="M16 5a4 4 0 1 1-8 0 4 4 0 0 1 8 0Zm-1 18v-6h3v-2c0-3.34-2.76-5.97-6-6-3.21.03-6 2.66-6 6v2h3v6m-5.5 0h17-17Z"/></svg>
